X:28
T:The Keel Row
C:Trad.
M:C
L:1/8
Q:132
K:G Major
"A"|: B2 G>B c2 A>c | B2 G>B A>F D2 | B2 G>B c2 A>c | B>GA>F G2 "B"::
B>cd>g e2 d>c | B2 G>BA>F D2 | B>cd>g e2 d>c | B>GA>F G2 :|

